X:251
T:Willie Wilson of Beith
R:Jig
M:6/8
L:1/8
K:D
|: F/E/ |\
"D" D2d      d2f | "A7" e2d   c/d/ec | "D"  d2A      FGA | "Em" Bcd "A7"efg |!
"D" f2d      dcd | "A7" e2d      cBA | "G"  dBd "A7" cBc | "D"  d3 D2 :|!
|| e |\
"D" f2d      def | "A7" e2d      cBA | "G"  B2G      DGB | "D"  A2GFED |!
"G" B2G      GAB | "D"  FAd      f2d | "Em" B2e      e2d | "A7" cBAGFE |!
"D" D2d      def | "A7" e2d   c/d/ec | "G"  d2B      DGB | "D"  A2GFED |!
"G" BGB "A7" dcB | "D"  Adf "Bm" a2A | "Em" BGe "A7" cBc | "D"  d3 d2  |]
